src/assets/logo.svg

<svg xmlns="http://www.w3.org/2000/svg" width="1024" height="1023" fill="none" viewBox="0 0 1024 1023"><g fill="currentColor" fill-opacity=".87"><path d="M414.575 161.684h201.069V93.279H414.575v68.405ZM414.575 194.85c0 38.878 22.412 74.311 57.45 91.014v228.209h28.719V413.267h28.72v100.806h28.73V285.72c35.038-16.559 57.45-51.992 57.45-90.87h-28.73c0 39.763-32.146 71.997-71.81 71.997-39.654 0-71.799-32.234-71.799-71.997m71.799 0c-15.939 0-28.72 12.816-28.72 28.799 0 15.983 12.781 28.809 28.72 28.809 15.94 0 28.73-12.826 28.73-28.809s-12.79-28.799-28.73-28.799Z"/><path d="m750.46 313.455 47.757-48.607c-14.471-17.454-30.27-33.882-47.417-48.269l-47.747 48.607c-17.477-14.223-36.559-26.324-56.773-36.363a104.394 104.394 0 0 1-32.504 59.754c80.147 38.179 135.675 120.78 135.675 216.918 0 132.47-105.24 239.611-235.378 239.611-130.138 0-235.379-107.141-235.379-239.611 0-97.04 56.588-180.278 137.95-217.964-17.97-14.961-30.362-35.471-35.303-58.339-100.485 50.074-169.908 154.744-169.908 276.303 0 170.126 135.181 308.072 302.64 308.072 167.458 0 302.64-137.946 302.64-308.072 0-72.573-24.888-139.32-66.253-192.04Z"/></g></svg>

<svg width="1024" height="1023" viewBox="0 0 1024 1023" fill="none" xmlns="http://www.w3.org/2000/svg">
<g id="logo">
<path id="Fill-4" d="M414.575 161.684H615.644V93.2794H414.575V161.684Z" fill="currentColor" fill-opacity="0.87"/>
<path id="Fill-6" d="M414.575 194.85C414.575 233.728 436.987 269.161 472.025 285.864V514.073H500.744V413.267H529.464V514.073H558.194V285.72C593.232 269.161 615.644 233.728 615.644 194.85H586.914C586.914 234.613 554.768 266.847 515.104 266.847C475.45 266.847 443.305 234.613 443.305 194.85M515.104 194.85C499.165 194.85 486.384 207.666 486.384 223.649C486.384 239.632 499.165 252.458 515.104 252.458C531.044 252.458 543.834 239.632 543.834 223.649C543.834 207.666 531.044 194.85 515.104 194.85Z" fill="currentColor" fill-opacity="0.87"/>
<path id="Fill-7" d="M750.46 313.455L798.217 264.848C783.746 247.394 767.947 230.966 750.8 216.579L703.053 265.186C685.576 250.963 666.494 238.862 646.28 228.823C642.399 251.917 630.903 272.918 613.776 288.577C693.923 326.756 749.451 409.357 749.451 505.495C749.451 637.965 644.211 745.106 514.073 745.106C383.935 745.106 278.694 637.965 278.694 505.495C278.694 408.455 335.282 325.217 416.644 287.531C398.674 272.57 386.282 252.06 381.341 229.192C280.856 279.266 211.433 383.936 211.433 505.495C211.433 675.621 346.614 813.567 514.073 813.567C681.531 813.567 816.713 675.621 816.713 505.495C816.713 432.922 791.825 366.175 750.46 313.455Z" fill="currentColor" fill-opacity="0.87"/>
</g>
</svg>
